X: 41
T: Je ne suis poinct
N: Derived from Ort3005-Je_ne_suis_poinct.krn
C: Marbrianus de Orto
%%abc-version 2.0
%%abcx-abcm2ps-target-version 5.9.1 (29 Sep 2008)
%%abc-creator hum2abc beta
%%abcx-conversion-date 2019/02/17 07:28:38
%%abc-edited-by Jesse Rodin
%%abc-edited-by Jesse Rodin 8/6/2013
%%abcx-initial-encoding-date 2013/08/06/
%%humdrum-veritas 1832207875
%%humdrum-veritas-data 1281381554
%%linebreak <none>
%%barnumbers 0
L: 1/4
M: 2/1
Q: 1/2=120
%%staves [1 2 3 4]
V: 1 clef=treble
V: 2 clef=treble-8
V: 3 clef=treble-8
V: 4 clef=bass
K: C
[V:1] D4D2D2 | 
[V:2] z4G4 | 
[V:3] z8 | 
[V:4] z8 | 
[V:1] G4G2A2- | 
[V:2] G2G2c4 | 
[V:3] z8 | 
[V:4] z8 | 
[V:1] AGFEF3E | 
[V:2] d2cBA4 | 
[V:3] D8 | 
[V:4] z8 | 
[V:1] G4D2G2- | 
[V:2] G3ABcd2 | 
[V:3] D4D4 | 
[V:4] G,,8 | 
[V:1] G2FED4 | 
[V:2] e2c4B2 | 
[V:3] G8 | 
[V:4] G,,4G,,4 | 
[V:1] C4c4 | 
[V:2] c6BA | 
[V:3] z4G4 | 
[V:4] C,8 | 
[V:1] d3cBAA2- | 
[V:2] G2g4e2- | 
[V:3] B4c4 | 
[V:4] z4C,4 | 
[V:1] A2G2A2c2- | 
[V:2] e2e2c3d | 
[V:3] B4A4 | 
[V:4] E,4F,4 | 
[V:1] cBG2A4 | 
[V:2] efg4^f2 | 
[V:3] z8 | 
[V:4] E,4D,4 | 
[V:1] D4z4 | 
[V:2] g4g2e2- | 
[V:3] B4c4 | 
[V:4] z8 | 
[V:1] G4A2A2 | 
[V:2] e2e2c2d2- | 
[V:3] B4A4 | 
[V:4] E,4F,4 | 
[V:1] G4F4 | 
[V:2] d2G2A4 | 
[V:3] B4z4 | 
[V:4] E,4D,4 | 
[V:1] z2G2F2E2- | 
[V:2] G4c4- | 
[V:3] G4A4 | 
[V:4] E,4z4 | 
[V:1] E2G2F2D2 | 
[V:2] c4A2B2 | 
[V:3] G4z4 | 
[V:4] C,4D,4 | 
[V:1] G2FED4 | 
[V:2] c4z2d2 | 
[V:3] E4F2G2 | 
[V:4] C,4z4 | 
[V:1] C4F2E2- | 
[V:2] e2c2d2cB | 
[V:3] A4z2G2 | 
[V:4] A,,4B,,2C,2 | 
[V:1] E2D4G2- | 
[V:2] A4G4 | 
[V:3] F4E4 | 
[V:4] D,4z2C,2 | 
[V:1] GFEDC4 | 
[V:2] z2G4^F2 | 
[V:3] D4z4 | 
[V:4] B,,4A,,4 | 
[V:1] z4d4 | 
[V:2] G8 | 
[V:3] d4d2d2 | 
[V:4] G,,4z4 | 
[V:1] d2d2B4 | 
[V:2] z2d4B2- | 
[V:3] B4G4 | 
[V:4] G,4G,2G,2 | 
[V:1] G2c3BAG | 
[V:2] B2e4e2- | 
[V:3] z4c4- | 
[V:4] E,4C,4 | 
[V:1] A2G2A2c2- | 
[V:2] e2d2c4- | 
[V:3] c2B2A2G2 | 
[V:4] z4F,4- | 
[V:1] cBAGF2G2 | 
[V:2] c4d2e2 | 
[V:3] A8 | 
[V:4] F,2E,2D,2C,2 | 
[V:1] F2G4^F2 | 
[V:2] d8 | 
[V:3] D2B2A4 | 
[V:4] D,8 | 
[V:1] G8 |]  
[V:2] d8 |]  
[V:3] G8 |]  
[V:4] G,,8 |]  



